**kern	**silbe	**harmony	**phrase	**leadinstrument	**rhyme	**timestamp	**harte
*ICvox	*	*M4/4	*	*	*	*	*M4/4
*VRlead	*	*	*	*	*	*	*
*Hstimme	*	*	*	*	*	*	*
*e:	*	*e:	*e:	*e:	*	*e:	*e:
*M4/4	*	*	*	*	*	*	*
*clefG2	*	*	*	*	*	*	*
r;	.	1r;	.	r	.	0	N.C.
=1	=1	=1	=1	=1	=1	=1	=1
*>Letter>A	*>Letter>A	*>Letter>A	*>Letter>A	*>Letter>A	*>Letter>A	*>Letter>A	*>Letter>A
*>Label>Intro	*>Label>Intro	*>Label>Intro	*>Label>Intro	*>Label>Intro	*>Label>Intro	*>Label>Intro	*>Label>Intro
1r	.	1Bm	newline	synthesizer	.	1.022	B:sus4(b7)
=2	=2	=2	=2	=2	=2	=2	=2
1r	.	1Bm	.	synthesizer	.	3.084	B:sus4(b7)
=3	=3	=3	=3	=3	=3	=3	=3
1r	.	2Em	newline	synthesizer	.	5.146	E:min
.	.	2AM	.	synthesizer	.	6.102	A:maj6
=4	=4	=4	=4	=4	=4	=4	=4
1r	.	2Em	.	synthesizer	.	7.058	E:min
.	.	2AM	.	synthesizer	.	8.014	A:maj6
=5	=5	=5	=5	=5	=5	=5	=5
1r	.	1Bm	newline	synthesizer	.	8.97	B:sus4(b7)
=6	=6	=6	=6	=6	=6	=6	=6
1r	.	1Bm	.	synthesizer	.	10.88	B:sus4(b7)
=7	=7	=7	=7	=7	=7	=7	=7
1r	.	2Em	newline	synthesizer	.	12.789	E:min
.	.	2AM	.	synthesizer	.	13.746	A:maj6
=8	=8	=8	=8	=8	=8	=8	=8
1r	.	2Em	.	synthesizer	.	14.702	E:min
.	.	2AM	.	synthesizer	.	15.658	A:maj6
=9	=9	=9	=9	=9	=9	=9	=9
1r	.	2Em	.	synthesizer	.	16.614	E:min
.	.	2AM	.	synthesizer	.	17.571	A:maj6
=10	=10	=10	=10	=10	=10	=10	=10
1r	.	2Em	.	synthesizer	.	18.527	E:min
.	.	2AM	.	synthesizer	.	19.483	A:maj6
=11	=11	=11	=11	=11	=11	=11	=11
*>Letter>B	*>Letter>B	*>Letter>B	*>Letter>B	*>Letter>B	*>Letter>B	*>Letter>B	*>Letter>B
*>Label>Verse	*>Label>Verse	*>Label>Verse	*>Label>Verse	*>Label>Verse	*>Label>Verse	*>Label>Verse	*>Label>Verse
8g	God-	2Em	newline	voice	.	20.439	E:min
8g	-dess	.	.	.	.	.	.
8f#	on	.	.	.	.	.	.
8e	the	.	.	.	.	.	.
8e	moun-	2AM	.	voice	.	21.386	A:maj6
8d	-tain	.	.	.	.	.	.
8e	_	.	.	.	.	.	.
8e	top	.	.	.	.	.	.
=12	=12	=12	=12	=12	=12	=12	=12
1r	.	2Em	.	voice	.	22.334	E:min
.	.	2AM	.	voice	.	23.281	A:maj6
=13	=13	=13	=13	=13	=13	=13	=13
8g	bur-	2Em	.	voice	.	24.228	E:min
8g	-ning	.	.	.	.	.	.
8f#	like	.	.	.	.	.	.
8e	a	.	.	.	.	.	.
8e	sil-	2AM	.	voice	.	25.175	A:maj6
4e	-ver	.	.	.	.	.	.
8e	flame	.	.	.	A	.	.
=14	=14	=14	=14	=14	=14	=14	=14
2r	.	2Em	.	voice	.	26.122	E:min
4r	.	2AM	.	voice	.	27.07	A:maj6
8r	.	.	.	.	.	.	.
8e	the	.	.	.	.	.	.
=15	=15	=15	=15	=15	=15	=15	=15
8g	sum-	2Em	newline	voice	.	28.017	E:min
8g	-mit	.	.	.	.	.	.
8f#	of	.	.	.	.	.	.
4e	beau-	.	.	.	.	.	.
.	.	2AM	.	voice	.	28.972	A:maj6
8e	-ty	.	.	.	.	.	.
8e	and	.	.	.	.	.	.
8e	love	.	.	.	.	.	.
=16	=16	=16	=16	=16	=16	=16	=16
2r	.	2Em	.	voice	.	29.928	E:min
4r	.	2AM	.	voice	.	30.883	A:maj6
8r	.	.	.	.	.	.	.
8e	and	.	.	.	.	.	.
=17	=17	=17	=17	=17	=17	=17	=17
8g	Ve-	2Em	.	voice	.	31.839	E:min
8g	-nus	.	.	.	.	.	.
8f#	was	.	.	.	.	.	.
8e	her	.	.	.	.	.	.
8e	name	2AM	.	voice	A	32.794	A:maj6
8f#	_	.	.	.	.	.	.
4r	.	.	.	.	.	.	.
=18	=18	=18	=18	=18	=18	=18	=18
2r	.	1Em	.	voice	.	33.75	E:min
4r	.	.	.	.	.	.	.
8r	.	.	.	.	.	.	.
8g	She's	.	.	.	.	.	.
=19	=19	=19	=19	=19	=19	=19	=19
*>Letter>C	*>Letter>C	*>Letter>C	*>Letter>C	*>Letter>C	*>Letter>C	*>Letter>C	*>Letter>C
*>Label>Chorus	*>Label>Chorus	*>Label>Chorus	*>Label>Chorus	*>Label>Chorus	*>Label>Chorus	*>Label>Chorus	*>Label>Chorus
8a	got	2Amm	newline	voice	.	35.661	A:min7
4a	it	.	.	.	.	.	.
8r	.	.	.	.	.	.	.
2r	.	2DM	.	voice	.	36.616	D:maj6
=20	=20	=20	=20	=20	=20	=20	=20
4r	.	2Amm	.	voice	.	37.572	A:min7
8a	Yeah	.	.	.	.	.	.
4a	ba-	.	.	.	.	.	.
.	.	2DM	.	voice	.	38.527	D:maj6
8g	-by	.	.	.	.	.	.
4a	she's	.	.	.	.	.	.
=21	=21	=21	=21	=21	=21	=21	=21
8g	got	2Em	.	voice	.	39.483	E:min
4e	it	.	.	.	.	.	.
8r	.	.	.	.	.	.	.
2r	.	2AM	.	voice	.	40.438	A:maj6
=22	=22	=22	=22	=22	=22	=22	=22
1r	.	2Em	.	voice	.	41.394	E:min
.	.	2AM	.	voice	.	42.349	A:maj6
=23	=23	=23	=23	=23	=23	=23	=23
8r	.	1CM	newline	voice	.	43.305	C:maj
4g	I'm	.	.	.	.	.	.
8e	your	.	.	.	.	.	.
8e	Ve-	.	.	.	.	.	.
8g	-nus	.	.	.	.	.	.
4r	.	.	.	.	.	.	.
=24	=24	=24	=24	=24	=24	=24	=24
8r	.	2Bm	.	voice	.	45.221	B:sus4(b7)
4b	I'm	.	.	.	.	.	.
8b	your	.	.	.	.	.	.
8a	fi-	2BMm	.	voice	(B	46.179	B:7
8b	-re	.	.	.	b)	.	.
8e	at	.	.	.	.	.	.
[8g	your	.	.	.	.	.	.
=25	=25	=25	=25	=25	=25	=25	=25
8g]	_	2Em	.	voice	.	47.137	E:min
8e	de-	.	.	.	.	.	.
8d	-si-	.	.	.	(B	.	.
8e	-re	.	.	.	b)	.	.
2r	.	2AM	.	voice	.	48.095	A:maj6
=26	=26	=26	=26	=26	=26	=26	=26
2r	.	2Em	.	voice	.	49.054	E:min
4r	.	2AM	.	voice	.	50.012	A:maj6
4e	Well	.	.	.	.	.	.
=27	=27	=27	=27	=27	=27	=27	=27
8r	.	1CM	newline	voice	.	50.97	C:maj
4g	I'm	.	.	.	.	.	.
8e	your	.	.	.	.	.	.
8e	Ve-	.	.	.	.	.	.
8g	-nus	.	.	.	.	.	.
4r	.	.	.	.	.	.	.
=28	=28	=28	=28	=28	=28	=28	=28
8r	.	2Bm	.	voice	.	52.881	B:sus4(b7)
4b	I'm	.	.	.	.	.	.
8b	your	.	.	.	.	.	.
8a	fi-	2BMm	.	voice	(B	53.836	B:7
8b	-re	.	.	.	b)	.	.
8e	at	.	.	.	.	.	.
[8g	your	.	.	.	.	.	.
=29	=29	=29	=29	=29	=29	=29	=29
8g]	_	2Em	.	voice	.	54.792	E:min
8e	de-	.	.	.	.	.	.
8d	-si-	.	.	.	(B	.	.
8e	-re	.	.	.	b)	.	.
2r	.	2AM	.	voice	.	55.747	A:maj6
=30	=30	=30	=30	=30	=30	=30	=30
2r	.	2Em	.	voice	.	56.703	E:min
4r	.	2AM	.	voice	.	57.659	A:maj6
8r	.	.	.	.	.	.	.
8e	Her	.	.	.	.	.	.
=31	=31	=31	=31	=31	=31	=31	=31
*>Letter>B	*>Letter>B	*>Letter>B	*>Letter>B	*>Letter>B	*>Letter>B	*>Letter>B	*>Letter>B
*>Label>Verse	*>Label>Verse	*>Label>Verse	*>Label>Verse	*>Label>Verse	*>Label>Verse	*>Label>Verse	*>Label>Verse
8g	wea-	2Em	newline	voice	.	58.614	E:min
8g	-pons	.	.	.	.	.	.
8f#	were	.	.	.	.	.	.
8d	her	.	.	.	.	.	.
8e	cry-	2AM	.	voice	.	59.566	A:maj6
4e	-stal	.	.	.	.	.	.
8e	eyes	.	.	.	.	.	.
=32	=32	=32	=32	=32	=32	=32	=32
1r	.	2Em	.	voice	.	60.518	E:min
.	.	2AM	.	voice	.	61.471	A:maj6
=33	=33	=33	=33	=33	=33	=33	=33
8g	ma-	2Em	.	voice	.	62.423	E:min
8g	-king	.	.	.	.	.	.
8g	ev'-	.	.	.	.	.	.
8a	-ry	.	.	.	.	.	.
8f#	man	2AM	.	voice	.	63.375	A:maj6
4d	_	.	.	.	.	.	.
8e	mad	.	.	.	C	.	.
=34	=34	=34	=34	=34	=34	=34	=34
1r	.	2Em	.	voice	.	64.327	E:min
.	.	2AM	.	voice	.	65.279	A:maj6
=35	=35	=35	=35	=35	=35	=35	=35
8g	black	2Em	newline	voice	.	66.232	E:min
8g	as	.	.	.	.	.	.
8g	the	.	.	.	.	.	.
8g	dark	.	.	.	.	.	.
8f#	_	2AM	.	voice	.	67.189	A:maj6
4e	night	.	.	.	.	.	.
[8f#	she	.	.	.	.	.	.
=36	=36	=36	=36	=36	=36	=36	=36
8f#]	_	2Em	.	voice	.	68.147	E:min
8e	was	.	.	.	.	.	.
4r	.	.	.	.	.	.	.
8r	.	2AM	.	voice	.	69.105	A:maj6
8g	got	.	.	.	.	.	.
8g	what	.	.	.	.	.	.
[8g	no	.	.	.	.	.	.
=37	=37	=37	=37	=37	=37	=37	=37
8g]	_	2Em	.	voice	.	70.062	E:min
8g	one	.	.	.	.	.	.
8f#	else	.	.	.	.	.	.
8e	_	.	.	.	.	.	.
8e	had	2AM	.	voice	C	71.02	A:maj6
8r	.	.	.	.	.	.	.
4r	.	.	.	.	.	.	.
=38	=38	=38	=38	=38	=38	=38	=38
2r	.	1Em	.	voice	.	71.978	E:min
4r	.	.	.	.	.	.	.
8r	.	.	.	.	.	.	.
8g	She's	.	.	.	.	.	.
=39	=39	=39	=39	=39	=39	=39	=39
*>Letter>C	*>Letter>C	*>Letter>C	*>Letter>C	*>Letter>C	*>Letter>C	*>Letter>C	*>Letter>C
*>Label>Chorus	*>Label>Chorus	*>Label>Chorus	*>Label>Chorus	*>Label>Chorus	*>Label>Chorus	*>Label>Chorus	*>Label>Chorus
8a	got	2Amm	newline	voice	.	73.893	A:min7
8a	it	.	.	.	.	.	.
4r	.	.	.	.	.	.	.
2r	.	2DM	.	voice	.	74.849	D:maj6
=40	=40	=40	=40	=40	=40	=40	=40
4r	.	2Amm	.	voice	.	75.804	A:min7
8a	Yeah	.	.	.	.	.	.
4a	ba-	.	.	.	.	.	.
.	.	2DM	.	voice	.	76.76	D:maj6
8g	-by	.	.	.	.	.	.
4a	she's	.	.	.	.	.	.
=41	=41	=41	=41	=41	=41	=41	=41
8g	got	2Em	.	voice	.	77.715	E:min
8e	it	.	.	.	.	.	.
4r	.	.	.	.	.	.	.
2r	.	2AM	.	voice	.	78.671	A:maj6
=42	=42	=42	=42	=42	=42	=42	=42
1r	.	2Em	.	voice	.	79.626	E:min
.	.	2AM	.	voice	.	80.581	A:maj6
=43	=43	=43	=43	=43	=43	=43	=43
8r	.	1CM	newline	voice	.	81.537	C:maj
4g	I'm	.	.	.	.	.	.
8e	your	.	.	.	.	.	.
8e	Ve-	.	.	.	.	.	.
8g	-nus	.	.	.	.	.	.
4r	.	.	.	.	.	.	.
=44	=44	=44	=44	=44	=44	=44	=44
8r	.	2Bm	.	voice	.	83.443	B:sus4(b7)
4b	I'm	.	.	.	.	.	.
8b	your	.	.	.	.	.	.
8a	fi-	2BMm	.	voice	(B	84.396	B:7
8b	-re	.	.	.	b)	.	.
8e	at	.	.	.	.	.	.
[8g	your	.	.	.	.	.	.
=45	=45	=45	=45	=45	=45	=45	=45
8g]	_	2Em	.	voice	.	85.348	E:min
8e	de-	.	.	.	.	.	.
8d	-si-	.	.	.	(B	.	.
8e	-re	.	.	.	b)	.	.
2r	.	2AM	.	voice	.	86.301	A:maj6
=46	=46	=46	=46	=46	=46	=46	=46
2r	.	2Em	.	voice	.	87.254	E:min
4r	.	2AM	.	voice	.	88.207	A:maj6
4e	Well	.	.	.	.	.	.
=47	=47	=47	=47	=47	=47	=47	=47
8r	.	1CM	newline	voice	.	89.16	C:maj
4g	I'm	.	.	.	.	.	.
8e	your	.	.	.	.	.	.
8e	Ve-	.	.	.	.	.	.
8g	-nus	.	.	.	.	.	.
4r	.	.	.	.	.	.	.
=48	=48	=48	=48	=48	=48	=48	=48
8r	.	2Bm	.	voice	.	91.07	B:sus4(b7)
4b	I'm	.	.	.	.	.	.
8b	your	.	.	.	.	.	.
8a	fi-	2BMm	.	voice	(B	92.025	B:7
8b	-re	.	.	.	b)	.	.
8e	at	.	.	.	.	.	.
[8g	your	.	.	.	.	.	.
=49	=49	=49	=49	=49	=49	=49	=49
8g]	_	2Em	.	voice	.	92.98	E:min
8e	de-	.	.	.	.	.	.
8d	-si-	.	.	.	(B	.	.
8e	-re	.	.	.	b)	.	.
2r	.	2AM	.	voice	.	93.935	A:maj6
=50	=50	=50	=50	=50	=50	=50	=50
1r	.	2Em	.	voice	.	94.889	E:min
.	.	2AM	.	voice	.	95.844	A:maj6
=51	=51	=51	=51	=51	=51	=51	=51
*>Letter>A2	*>Letter>A2	*>Letter>A2	*>Letter>A2	*>Letter>A2	*>Letter>A2	*>Letter>A2	*>Letter>A2
*>Label>Transition	*>Label>Transition	*>Label>Transition	*>Label>Transition	*>Label>Transition	*>Label>Transition	*>Label>Transition	*>Label>Transition
1r	.	1Bm	newline	synthesizer	.	96.799	B:sus4(b7)
=52	=52	=52	=52	=52	=52	=52	=52
1r	.	1Bm	.	synthesizer	.	98.722	B:sus4(b7)
=53	=53	=53	=53	=53	=53	=53	=53
*>Letter>B	*>Letter>B	*>Letter>B	*>Letter>B	*>Letter>B	*>Letter>B	*>Letter>B	*>Letter>B
*>Label>Solo	*>Label>Solo	*>Label>Solo	*>Label>Solo	*>Label>Solo	*>Label>Solo	*>Label>Solo	*>Label>Solo
1r	.	2Em	newline	synthesizer	.	100.645	E:min
.	.	2AM	.	synthesizer	.	101.597	A:maj6
=54	=54	=54	=54	=54	=54	=54	=54
1r	.	2Em	.	synthesizer	.	102.549	E:min
.	.	2AM	.	synthesizer	.	103.501	A:maj6
=55	=55	=55	=55	=55	=55	=55	=55
1r	.	2Em	.	synthesizer	.	104.452	E:min
.	.	2AM	.	synthesizer	.	105.404	A:maj6
=56	=56	=56	=56	=56	=56	=56	=56
1r	.	2Em	.	synthesizer	.	106.356	E:min
.	.	2AM	.	synthesizer	.	107.308	A:maj6
=57	=57	=57	=57	=57	=57	=57	=57
1r	.	2Em	newline	synthesizer	.	108.26	E:min
.	.	2AM	.	synthesizer	.	109.217	A:maj6
=58	=58	=58	=58	=58	=58	=58	=58
1r	.	2Em	.	synthesizer	.	110.174	E:min
.	.	2AM	.	synthesizer	.	111.13	A:maj6
=59	=59	=59	=59	=59	=59	=59	=59
1r	.	2Em	.	synthesizer	.	112.087	E:min
.	.	2AM	.	synthesizer	.	113.044	A:maj6
=60	=60	=60	=60	=60	=60	=60	=60
8e	(Ve-	1Em	.	synthesizer	.	114.001	E:min
8e	-nus)	.	.	.	.	.	.
2r	.	.	.	.	.	.	.
8r	.	.	.	.	.	.	.
8g	She's	.	.	.	.	.	.
=61	=61	=61	=61	=61	=61	=61	=61
*>Letter>C	*>Letter>C	*>Letter>C	*>Letter>C	*>Letter>C	*>Letter>C	*>Letter>C	*>Letter>C
*>Label>Chorus	*>Label>Chorus	*>Label>Chorus	*>Label>Chorus	*>Label>Chorus	*>Label>Chorus	*>Label>Chorus	*>Label>Chorus
8a	got	2Amm	newline	voice	.	115.914	A:min7
8a	it	.	.	.	.	.	.
4r	.	.	.	.	.	.	.
2r	.	2DM	.	voice	.	116.867	D:maj6
=62	=62	=62	=62	=62	=62	=62	=62
4r	.	2Amm	.	voice	.	117.82	A:min7
8a	Yeah	.	.	.	.	.	.
4a	ba-	.	.	.	.	.	.
.	.	2DM	.	voice	.	118.773	D:maj6
8g	-by	.	.	.	.	.	.
4a	she's	.	.	.	.	.	.
=63	=63	=63	=63	=63	=63	=63	=63
8g	got	2Em	.	voice	.	119.726	E:min
8e	it	.	.	.	.	.	.
4r	.	.	.	.	.	.	.
2r	.	2AM	.	voice	.	120.679	A:maj6
=64	=64	=64	=64	=64	=64	=64	=64
1r	.	2Em	.	voice	.	121.632	E:min
.	.	2AM	.	voice	.	122.585	A:maj6
=65	=65	=65	=65	=65	=65	=65	=65
8r	.	1CM	newline	voice	.	123.538	C:maj
4g	I'm	.	.	.	.	.	.
8e	your	.	.	.	.	.	.
8e	Ve-	.	.	.	.	.	.
8g	-nus	.	.	.	.	.	.
4r	.	.	.	.	.	.	.
=66	=66	=66	=66	=66	=66	=66	=66
8r	.	2Bm	.	voice	.	125.453	B:sus4(b7)
4b	I'm	.	.	.	.	.	.
8b	your	.	.	.	.	.	.
8a	fi-	2BMm	.	voice	(B	126.411	B:7
8b	-re	.	.	.	b)	.	.
8e	at	.	.	.	.	.	.
[8g	your	.	.	.	.	.	.
=67	=67	=67	=67	=67	=67	=67	=67
8g]	_	2Em	.	voice	.	127.368	E:min
8e	de-	.	.	.	.	.	.
8d	-si-	.	.	.	(B	.	.
8e	-re	.	.	.	b)	.	.
2r	.	2AM	.	voice	.	128.325	A:maj6
=68	=68	=68	=68	=68	=68	=68	=68
2r	.	2Em	.	voice	.	129.283	E:min
4r	.	2AM	.	voice	.	130.24	A:maj6
4e	Well	.	.	.	.	.	.
=69	=69	=69	=69	=69	=69	=69	=69
8r	.	1CM	newline	voice	.	131.197	C:maj
4g	I'm	.	.	.	.	.	.
8e	your	.	.	.	.	.	.
8e	Ve-	.	.	.	.	.	.
8g	-nus	.	.	.	.	.	.
4r	.	.	.	.	.	.	.
=70	=70	=70	=70	=70	=70	=70	=70
8r	.	2Bm	.	voice	.	133.102	B:sus4(b7)
4b	I'm	.	.	.	.	.	.
8b	your	.	.	.	.	.	.
8a	fi-	2BMm	.	voice	(B	134.054	B:7
8b	-re	.	.	.	b)	.	.
8e	at	.	.	.	.	.	.
[8g	your	.	.	.	.	.	.
=71	=71	=71	=71	=71	=71	=71	=71
8g]	_	2Em	.	voice	.	135.007	E:min
8e	de-	.	.	.	.	.	.
8d	-si-	.	.	.	(B	.	.
8e	-re	.	.	.	b)	.	.
2r	.	2AM	.	voice	.	135.959	A:maj6
=72	=72	=72	=72	=72	=72	=72	=72
1r	.	2Em	.	voice	.	136.911	E:min
.	.	2AM	.	voice	.	137.864	A:maj6
=73	=73	=73	=73	=73	=73	=73	=73
*>Letter>B	*>Letter>B	*>Letter>B	*>Letter>B	*>Letter>B	*>Letter>B	*>Letter>B	*>Letter>B
*>Label>Verse	*>Label>Verse	*>Label>Verse	*>Label>Verse	*>Label>Verse	*>Label>Verse	*>Label>Verse	*>Label>Verse
8g	God-	2Em	newline	voice	.	138.816	E:min
8g	-dess	.	.	.	.	.	.
8f#	on	.	.	.	.	.	.
8e	the	.	.	.	.	.	.
8e	moun-	2AM	.	voice	.	139.775	A:maj
8d	-tain	.	.	.	.	.	.
8e	_	.	.	.	.	.	.
8e	top	.	.	.	.	.	.
=74	=74	=74	=74	=74	=74	=74	=74
1r	.	2Emm	.	voice	.	140.734	E:min7
.	.	2AM	.	voice	.	141.693	A:maj
=75	=75	=75	=75	=75	=75	=75	=75
8g	bur-	2Em	.	voice	.	142.652	E:min
8g	-ning	.	.	.	.	.	.
8f#	like	.	.	.	.	.	.
8e	a	.	.	.	.	.	.
8e	sil-	2AM	.	voice	.	143.61	A:maj
4e	-ver	.	.	.	.	.	.
8e	flame	.	.	.	A	.	.
=76	=76	=76	=76	=76	=76	=76	=76
2r	.	2Emm	.	voice	.	144.569	E:min7
4r	.	2AM	.	voice	.	145.528	A:maj
8r	.	.	.	.	.	.	.
8e	the	.	.	.	.	.	.
=77	=77	=77	=77	=77	=77	=77	=77
8g	sum-	2Em	newline	voice	.	146.487	E:min
8g	-mit	.	.	.	.	.	.
8f#	of	.	.	.	.	.	.
4e	beau-	.	.	.	.	.	.
.	.	2AM	.	voice	.	147.441	A:maj
8e	-ty	.	.	.	.	.	.
8e	and	.	.	.	.	.	.
8e	love	.	.	.	.	.	.
=78	=78	=78	=78	=78	=78	=78	=78
2r	.	2Emm	.	voice	.	148.395	E:min7
4r	.	2AM	.	voice	.	149.349	A:maj
8r	.	.	.	.	.	.	.
8e	and	.	.	.	.	.	.
=79	=79	=79	=79	=79	=79	=79	=79
8g	Ve-	2Em	.	voice	.	150.303	E:min
8g	-nus	.	.	.	.	.	.
8f#	was	.	.	.	.	.	.
8e	her	.	.	.	.	.	.
8e	name	2AM	.	voice	A	151.257	A:maj
8f#	_	.	.	.	.	.	.
4r	.	.	.	.	.	.	.
=80	=80	=80	=80	=80	=80	=80	=80
2r	.	2Emm	.	voice	.	152.211	E:min7
4r	.	2AM	.	voice	.	153.165	A:maj
8r	.	.	.	.	.	.	.
8g	She's	.	.	.	.	.	.
=81	=81	=81	=81	=81	=81	=81	=81
*>Letter>C	*>Letter>C	*>Letter>C	*>Letter>C	*>Letter>C	*>Letter>C	*>Letter>C	*>Letter>C
*>Label>Chorus	*>Label>Chorus	*>Label>Chorus	*>Label>Chorus	*>Label>Chorus	*>Label>Chorus	*>Label>Chorus	*>Label>Chorus
8a	got	2Amm	newline	voice	.	154.12	A:min7
8a	it	.	.	.	.	.	.
4r	.	.	.	.	.	.	.
2r	.	2DM	.	voice	.	155.074	D:maj6
=82	=82	=82	=82	=82	=82	=82	=82
4r	.	2Amm	.	voice	.	156.028	A:min7
8a	Yeah	.	.	.	.	.	.
4a	ba-	.	.	.	.	.	.
.	.	2DM	.	voice	.	156.982	D:maj6
8g	-by	.	.	.	.	.	.
4a	she's	.	.	.	.	.	.
=83	=83	=83	=83	=83	=83	=83	=83
8g	got	2Em	.	voice	.	157.936	E:min
8e	it	.	.	.	.	.	.
4r	.	.	.	.	.	.	.
2r	.	2AM	.	voice	.	158.89	A:maj6
=84	=84	=84	=84	=84	=84	=84	=84
1r	.	2Em	.	voice	.	159.844	E:min
.	.	2AM	.	voice	.	160.798	A:maj6
=85	=85	=85	=85	=85	=85	=85	=85
8r	.	1CM	newline	voice	.	161.752	C:maj
4g	I'm	.	.	.	.	.	.
8e	your	.	.	.	.	.	.
8e	Ve-	.	.	.	.	.	.
8g	-nus	.	.	.	.	.	.
4r	.	.	.	.	.	.	.
=86	=86	=86	=86	=86	=86	=86	=86
8r	.	2Bm	.	voice	.	163.663	B:sus4(b7)
4b	I'm	.	.	.	.	.	.
8b	your	.	.	.	.	.	.
8a	fi-	2BMm	.	voice	(B	164.619	B:7
8b	-re	.	.	.	b)	.	.
8e	at	.	.	.	.	.	.
[8g	your	.	.	.	.	.	.
=87	=87	=87	=87	=87	=87	=87	=87
8g]	_	2Em	.	voice	.	165.575	E:min
8e	de-	.	.	.	.	.	.
8d	-si-	.	.	.	(B	.	.
8e	-re	.	.	.	b)	.	.
2r	.	2AM	.	voice	.	166.53	A:maj6
=88	=88	=88	=88	=88	=88	=88	=88
2r	.	2Em	.	voice	.	167.486	E:min
4r	.	2AM	.	voice	.	168.441	A:maj6
4e	Well	.	.	.	.	.	.
=89	=89	=89	=89	=89	=89	=89	=89
8r	.	1CM	newline	voice	.	169.397	C:maj
4g	I'm	.	.	.	.	.	.
8e	your	.	.	.	.	.	.
8e	Ve-	.	.	.	.	.	.
8g	-nus	.	.	.	.	.	.
4r	.	.	.	.	.	.	.
=90	=90	=90	=90	=90	=90	=90	=90
8r	.	2Bm	.	voice	.	171.311	B:sus4(b7)
4b	I'm	.	.	.	.	.	.
8b	your	.	.	.	.	.	.
8a	fi-	2BMm	.	voice	(B	172.268	B:7
8b	-re	.	.	.	b)	.	.
8e	at	.	.	.	.	.	.
[8g	your	.	.	.	.	.	.
=91	=91	=91	=91	=91	=91	=91	=91
8g]	_	2Em	.	voice	.	173.225	E:min
8e	de-	.	.	.	.	.	.
8d	-si-	.	.	.	(B	.	.
8e	-re	.	.	.	b)	.	.
2r	.	2AM	.	voice	.	174.182	A:maj6
=92	=92	=92	=92	=92	=92	=92	=92
1r	.	2Em	.	voice	.	175.139	E:min
.	.	2AM	.	voice	.	176.096	A:maj6
=93	=93	=93	=93	=93	=93	=93	=93
*>Letter>A2	*>Letter>A2	*>Letter>A2	*>Letter>A2	*>Letter>A2	*>Letter>A2	*>Letter>A2	*>Letter>A2
*>Label>Interlude	*>Label>Interlude	*>Label>Interlude	*>Label>Interlude	*>Label>Interlude	*>Label>Interlude	*>Label>Interlude	*>Label>Interlude
2r	.	1Bm	newline	synthesizer	.	177.053	B:sus4(b7)
4r	.	.	.	.	.	.	.
8r	.	.	.	.	.	.	.
[8d	(Ve-	.	.	.	.	.	.
=94	=94	=94	=94	=94	=94	=94	=94
8d]	_	1Bm	.	synthesizer	.	178.964	B:sus4(b7)
8d	nus	.	.	.	.	.	.
8c#	was	.	.	.	.	.	.
8B	her	.	.	.	.	.	.
8B	name)	.	.	.	.	.	.
8c#	_	.	.	.	.	.	.
8r	.	.	.	.	.	.	.
8r	.	.	.	.	.	.	.
=95	=95	=95	=95	=95	=95	=95	=95
1r	.	1Bm	.	synthesizer	.	180.876	B:sus4(b7)
=96	=96	=96	=96	=96	=96	=96	=96
1r	.	1Bm	.	synthesizer	.	182.787	B:sus4(b7)
=97	=97	=97	=97	=97	=97	=97	=97
*>Letter>B	*>Letter>B	*>Letter>B	*>Letter>B	*>Letter>B	*>Letter>B	*>Letter>B	*>Letter>B
*>Label>Outro	*>Label>Outro	*>Label>Outro	*>Label>Outro	*>Label>Outro	*>Label>Outro	*>Label>Outro	*>Label>Outro
1r	.	2Em	newline	synthesizer	.	184.699	E:min
.	.	2AM	.	synthesizer	.	185.657	A:maj6
=98	=98	=98	=98	=98	=98	=98	=98
4r	.	2Em	.	synthesizer	.	186.615	E:min
8a	Yeah	.	.	.	.	.	.
4a	ba-	.	.	.	.	.	.
.	.	2AM	.	synthesizer	.	187.573	A:maj6
8g	-by	.	.	.	.	.	.
4a	she's	.	.	.	.	.	.
=99	=99	=99	=99	=99	=99	=99	=99
8g	got	2Em	.	synthesizer	.	188.531	E:min
8e	it	.	.	.	.	.	.
4r	.	.	.	.	.	.	.
2r	.	2AM	.	synthesizer	.	189.489	A:maj6
=100	=100	=100	=100	=100	=100	=100	=100
4r	.	2Em	.	synthesizer	.	190.448	E:min
8a	Yeah	.	.	.	.	.	.
4a	ba-	.	.	.	.	.	.
.	.	2AM	.	synthesizer	.	191.406	A:maj6
8g	-by	.	.	.	.	.	.
4a	she's	.	.	.	.	.	.
=101	=101	=101	=101	=101	=101	=101	=101
8g	got	2Em	newline	synthesizer	.	192.364	E:min
8e	it	.	.	.	.	.	.
4r	.	.	.	.	.	.	.
2r	.	2AM	.	synthesizer	.	193.307	A:maj6
=102	=102	=102	=102	=102	=102	=102	=102
4r	.	2Em	.	synthesizer	.	194.251	E:min
8a	Yeah	.	.	.	.	.	.
4a	ba-	.	.	.	.	.	.
.	.	2AM	.	synthesizer	.	195.194	A:maj6
8g	-by	.	.	.	.	.	.
4a	she's	.	.	.	.	.	.
=103	=103	=103	=103	=103	=103	=103	=103
8g	got	2Em	.	synthesizer	.	196.138	E:min
8e	it	.	.	.	.	.	.
4r	.	.	.	.	.	.	.
2r	.	2AM	.	synthesizer	.	197.081	A:maj6
=104	=104	=104	=104	=104	=104	=104	=104
4r	.	2Em	.	synthesizer	.	198.024	E:min
8a	Yeah	.	.	.	.	.	.
4a	ba-	.	.	.	.	.	.
.	.	2AM	.	synthesizer	.	198.968	A:maj6
8g	-by	.	.	.	.	.	.
4a	she's	.	.	.	.	.	.
=105	=105	=105	=105	=105	=105	=105	=105
*>Label>>Fadeout	*>Label>>Fadeout	*>Label>>Fadeout	*>Label>>Fadeout	*>Label>>Fadeout	*>Label>>Fadeout	*>Label>>Fadeout	*>Label>>Fadeout
8g	got	2Em	newline	synthesizer	.	199.911	E:min
8e	it	.	.	.	.	.	.
4r	.	.	.	.	.	.	.
2r	.	2AM	.	synthesizer	.	200.872	A:maj6
=106	=106	=106	=106	=106	=106	=106	=106
4r	.	2Em	.	synthesizer	.	201.832	E:min
8a	Yeah	.	.	.	.	.	.
4a	ba-	.	.	.	.	.	.
.	.	2AM	.	synthesizer	.	202.793	A:maj6
8g	-by	.	.	.	.	.	.
4a	she's	.	.	.	.	.	.
=107	=107	=107	=107	=107	=107	=107	=107
8g	got	2Em	.	synthesizer	.	203.754	E:min
8e	it	.	.	.	.	.	.
4r	.	.	.	.	.	.	.
2r	.	2AM	.	synthesizer	.	204.714	A:maj6
=108	=108	=108	=108	=108	=108	=108	=108
4r	.	2Em	.	synthesizer	.	205.675	E:min
8a	Yeah	.	.	.	.	.	.
4a	ba-	.	.	.	.	.	.
.	.	2AM	.	synthesizer	.	206.635	A:maj6
8g	-by	.	.	.	.	.	.
4a	she's	.	.	.	.	.	.
=109	=109	=109	=109	=109	=109	=109	=109
8g	got	2Em	newline	synthesizer	.	207.596	E:min
8e	it	.	.	.	.	.	.
4r	.	.	.	.	.	.	.
2r	.	2AM	.	synthesizer	.	208.562	A:maj6
=110	=110	=110	=110	=110	=110	=110	=110
4r	.	2Em	.	synthesizer	.	209.528	E:min
8a	Yeah	.	.	.	.	.	.
4a	ba-	.	.	.	.	.	.
.	.	2AM	.	synthesizer	.	210.494	A:maj6
8g	-by	.	.	.	.	.	.
4a	she's	.	.	.	.	.	.
=111	=111	=111	=111	=111	=111	=111	=111
8g	got	2Em	.	synthesizer	.	211.46	E:min
8e	it	.	.	.	.	.	.
4r	.	.	.	.	.	.	.
2r	.	2AM	.	synthesizer	.	212.426	A:maj6
=112	=112	=112	=112	=112	=112	=112	=112
1r	.	2Em	.	synthesizer	.	213.392	E:min
.	.	2AM	.	synthesizer	.	214.357	A:maj6
r;	.	1r;	.	r	.	217.014	N.C.
r;	.	1r;	.	r	.	222.302	N.C.
*-	*-	*-	*-	*-	*-	*-	*-
!!!BillboardChartDate: 1986/11/01
!!!BillboardPeak: 1
!!!BillboardWeeksOnChart: 19
!!!COC: Bananarama
!!!ENC: Nathaniel Condit-Schultz
!!!EST: Awating manual error checking and editing.
!!!OTL: Venus
!!!RDF**chordsym: original McGill chord annotation + (implied pitch class set, with bass pitch in first position)
!!!RDF**harmony: **recip + pitch class of root + harmonic quality
!!!RDF**leadinstrument: original McGill primary instrumentation annotation
!!!RDF**phrase: newline = linebreak in original McGill transcription
!!!RDF**timestamp: McGill audio timestamp in seconds
!!!RDT: 2017/01/12/
!!!SampleActualRank: 99
!!!SampleID#: 0981
!!!SampleTargetRank: 97
